X:13
T:Annie May's 90th Birthday
R:jig
C:Paul S. Cranford
O:Cape Breton Island
S:http://www.cranfordpub.com
D:currently unrecorded
B:currently unpublished in book form
Z:psc
H:                                                        copyrights Cranford Publications, SOCAN
L:1/8
Q:300
M:6/8
K:Ador
B|eAA GBG|ABg e2 f|gba gfe|dGd Bcd|
eAA GBG|ABg e2 f|gba gfe|dGB A2:|
|:B|e2 a d2 g|aAB cBA|e2 a g2 e|dGA Bcd|
e2 a d2 g|aef g2 e|gba gfe|dGB A2:|
